X: 41824
T: Vila Vid Denna Kalla
R: hornpipe
M: 4/4
K: Gmajor
"G"d2d2"D7"d>e c>d|"G"B2B2"D7"B>c A>B|"G"G2G2"D7"A2d2|"G"d3"D7"c"G"B4|
"G"d2d2"D7"d>e c>d|"G"B2B2"D7"B>c A>B|"G"G2G2"D7"A>G A>B|"G"G4z2G2|
"D"F4"G"G4|"D"A4>d4|"D7"c2c2"G"B>A B>c|B4"D"A2"G"G2|"D"F4"G"G4|"D"A8|
"G"d2d2"D7"d>e c>d|"G"B2B2"D7"B>c A>B|"G"G2G2"D7"A>G A>B|"G"G8||

